X:1
T:No Night There
T:Hart Pease Danks
T:No Night There
T:Public Domain
T:Public Domain
C:Hart Pease Danks
Z:Public Domain
%%score ( 1 2 ) ( 3 4 )
L:1/8
M:3/4
K:Eb
V:1 treble 
V:2 treble 
V:3 bass 
V:4 bass 
V:1
 E[EF] | [EG]3 [EG] [DA][DF] | [EB]4 E[EF] | [EG] [B,E]3 [DF]2 | E4 E[EF] | [EG]3 [GB] [^Fd][Fc] | %6
w: 1.~In the|of fade- less day,|Lies “the ci-|four- square,” It|shall nev- er|way, And there is|
w: 2.~All the|of pearl are made,|In “the ci-|four- square,” All|the streets with|laid, And there is|
w: 3.~All the|shall nev- er close,|To “the c-|four- square,” There|life’s crys- tal|flows, And there is|
w: 4.~There they|no sun- shine bright,|In “that ci-|four- square,” For|the Lamb is|light, And there is|
 [GB]4 E[EF] | [EG][B,E] [DF]4 | [B,E]4 ||"^Refrain" BB | EG (GE) (cB) | (CC C2) AA | %12
w: “no night there.”||||||
w: “no night there.”|shall “wipe a-|way|all tears”|death, no pain, * nor *|count * * not time|
w: “no night there.”||||||
w: “no night there.”||||||
 (DD) (z F) (GF) x | (EE) E2 [GB][GB] | (GG) (z d) cB x | (GG [FA]2) [CG][CF] | (B,B,) (z E) F2 x | %17
w: |||||
w: there * * is *|||||
w: |||||
w: |||||
 [B,E]4 |] %18
w: |
w: |
w: |
w: |
V:2
 E x | x6 | x4 E x | x6 | E4 E x | x6 | x4 E x | x6 | x4 || BB | B3 G C2 | A4 AA | A3 D2 BA | %13
w: land||ty||pass a-|||||||||
w: gates||ty||gold are||God|||There’s no|fears; And they|by years, For|“no night there.” *|
w: gates||ity||riv- er|||||||||
w: need||ty||all the|||||||||
 G4 x2 | e3 G2 G2 | B2 x4 | E3 B,2 D2 | x4 |] %18
w: |||||
w: |||||
w: |||||
w: |||||
V:3
 [E,G,][E,A,] | [E,B,]3 [E,B,] [F,B,][A,B,] | [G,B,]4 [C,=A,][_C,A,] | [B,,B,] [B,,G,]3 [B,,A,]2 | %4
 [E,G,]4 [E,G,][E,A,] | [E,B,]3 [E,B,] [E,=A,][E,A,] | [E,B,]4 [C,=A,][_C,A,] | %7
 [B,,B,][B,,F,] [B,,A,]4 | [E,G,]4 || z2 | [E,G,][E,B,] (EB,) [=E,G,]2 | [F,A,][F,A,] [F,A,]2 z2 | %12
 ([B,,F,][B,,F,]) (F,B,) [B,,B,]2 x | [E,B,][E,B,] [E,B,]2 [E,B,][E,B,] | %14
 ([E,B,][E,B,]) (B,=B,) [_E,C][=E,_D] x | [F,C][F,C] [F,C]2 [A,,B,][A,,A,] | %16
 [B,,G,][B,,G,] (G,2 A,2) x | [E,G,]4 |] %18
V:4
 x2 | x6 | x6 | x6 | x6 | x6 | x6 | x6 | x4 || x2 | x2 =E,2 x2 | x6 | x2 B,,2 x3 | x6 | %14
 x2 =E,2 x3 | x6 | x2 B,,4 x | x4 |] %18

